svg/fluentui-system-icons/ic_fluent_chess_20_filled.svg

<svg width="20" height="20" viewBox="0 0 20 20" fill="none" xmlns="http://www.w3.org/2000/svg">
<path d="M10.5 2C10.2239 2 10 2.22386 10 2.5V5.1C10 6.47662 10.9269 7.6362 12.1908 7.98949C11.9707 10.7301 11.1781 12.7747 10.529 14.0363C10.713 14.2518 10.8862 14.4134 11.021 14.5261C11.5396 14.9599 12 15.6674 12 16.5488C12 17.0919 11.8234 17.5937 11.5245 18H17C17.8284 18 18.5 17.3284 18.5 16.5V16.1926C18.5 15.8451 18.3814 15.524 18.1983 15.261C17.6575 14.4844 16.129 11.9717 15.8092 7.98949C17.0731 7.6362 18 6.47662 18 5.1V2.5C18 2.22386 17.7761 2 17.5 2H16.75C16.3358 2 16 2.33579 16 2.75V3.5C16 3.77565 15.7769 3.99931 15.5012 4C15.2256 4.00069 15.0014 3.77815 15 3.5025L15 3.5L14.9962 2.74625C14.9942 2.3335 14.659 2 14.2462 2H13.7538C13.341 2 13.0058 2.3335 13.0038 2.74625L13 3.5025C12.9986 3.77815 12.7744 4.00069 12.4987 4C12.2231 3.99931 12 3.77565 12 3.5V2.75C12 2.33579 11.6642 2 11.25 2H10.5ZM6.5 5C4.84315 5 3.5 6.34315 3.5 8C3.5 8.76835 3.78885 9.46924 4.26389 10H4C3.44772 10 3 10.4477 3 11C3 11.5523 3.44772 12 4 12H4.5191C4.14836 13.798 3.16747 14.8358 2.62062 15.2932C2.27366 15.5834 2 16.029 2 16.5488C2 17.3503 2.64972 18 3.4512 18H9.5488C10.3503 18 11 17.3503 11 16.5488C11 16.029 10.7263 15.5834 10.3794 15.2932C9.83253 14.8358 8.85164 13.798 8.4809 12H9C9.55228 12 10 11.5523 10 11C10 10.4477 9.55229 10 9 10H8.73611C9.21115 9.46924 9.5 8.76835 9.5 8C9.5 6.34315 8.15685 5 6.5 5Z" fill="#212121"/>
</svg>

<svg xmlns="http://www.w3.org/2000/svg" width="20" height="20"><path d="M10.5 2a.5.5 0 0 0-.5.5v2.6c0 1.377.927 2.536 2.19 2.89-.22 2.74-1.012 4.785-1.661 6.046.184.216.357.377.492.49.519.434.979 1.141.979 2.023A2.44 2.44 0 0 1 11.524 18H17a1.5 1.5 0 0 0 1.5-1.5v-.307c0-.348-.119-.669-.302-.932-.54-.777-2.069-3.29-2.389-7.272A3.001 3.001 0 0 0 18 5.1V2.5a.5.5 0 0 0-.5-.5h-.75a.75.75 0 0 0-.75.75v.75a.5.5 0 0 1-1 .002V3.5l-.004-.754a.75.75 0 0 0-.75-.746h-.492a.75.75 0 0 0-.75.746L13 3.502a.5.5 0 0 1-1-.002v-.75a.75.75 0 0 0-.75-.75h-.75Zm-4 3a3 3 0 0 0-2.236 5H4a1 1 0 1 0 0 2h.52c-.372 1.798-1.353 2.836-1.9 3.293-.346.29-.62.736-.62 1.256C2 17.35 2.65 18 3.451 18H9.55c.8 0 1.45-.65 1.45-1.451 0-.52-.274-.966-.62-1.256-.547-.457-1.528-1.495-1.9-3.293H9a1 1 0 1 0 0-2h-.264A3 3 0 0 0 6.5 5Z"/></svg>
